!!!COM:	Bach, Johann Sebastian
!!!OMV:	Werde munter, mein Gem&uuml;te
!!!OTL:	Werde munter, mein Gem&uuml;te
**kern	**fb	**kern	**kern	**kern
*part4	*part4	*part3	*part2	*part1
*staff4	*	*staff3	*staff2	*staff1
*I"Voice	*	*I"Voice	*I"Voice	*I"Voice
*I'V	*	*I'V	*I'V	*I'V
*clefF4	*	*clefGv2	*clefG2	*clefG2
*k[f#c#g#]	*	*k[f#c#g#]	*k[f#c#g#]	*k[f#c#g#]
*M4/4	*	*M4/4	*M4/4	*M4/4
=	=	=	=	=
4A	.	4e	4a	4cc#
4F#	6	4f#	4a	4dd
4C#	5	8eL	4g#	4ee
.	.	8dJ	.	.
4F#	7	4c#	4a	4ee
=3	=3	=3	=3	=3
4BB	7	4d	8aL	4dd
.	6	.	8g#J	.
8C#L	6	4e	4a	4cc#
8DJ	.	.	.	.
4E	.	4e	4g#	4b
4E;	.	4e;	4g#;	4b;
=4	=4	=4	=4	=4
8AL	.	4e	4a	4cc#
8G#J	.	.	.	.
4F#	6	4f#	4a	4dd
4G#	6	4B	4b	4ee
4A	.	8c#L	4a	4cc#
.	.	8dJ	.	.
=5	=5	=5	=5	=5
4E	4	8eL	4a	4b
.	.	8BJ	.	.
4E	3	8eL	4g#	4b
.	.	8dJ	.	.
2AA;	.	2c#;	2e;	2a;
=6:|!	=6:|!	=6:|!	=6:|!	=6:|!
4E	.	4e	4g#	4b
8DL	7 #5\ 2	4e	4a#X	4cc#
8C#J	.	.	.	.
8BBL	.	4f#	4b	4dd
8C#J	.	.	.	.
8DL	6	4f#	4b	4dd
8EJ	.	.	.	.
=7	=7	=7	=7	=7
4F#	4	8f#L	4b	4cc#
.	.	8c#J	.	.
4F#	#	8f#L	4a#X	4cc#
.	.	8eJ	.	.
4BB	.	4d	4f#	4b
4BB;	.	4d;	4f#;	4b;
=8	=8	=8	=8	=8
!!linebreak:original
4B	.	4d	4f#	4dd
8AL	.	4c#	4a	4ee
8GnJ	.	.	.	.
8F#L	6	4d	4a	4ff#
8EJ	.	.	.	.
4D	.	4d	4a	4ff#
=9	=9	=9	=9	=9
4A	4	4d	8aL	4ee
.	.	.	8eJ	.
4AA	3	4c#	8aL	4ee
.	.	.	8gnJ	.
4D	.	4A	4f#	4dd
4D;	.	4A;	4f#;	4dd;
=10	=10	=10	=10	=10
8AL	.	8AL	4e	4cc#
8G#J	.	8BJ	.	.
4F#	6	4c#	4a	4dd
4G#	6	4B	8eL	4ee
.	.	.	8f#J	.
4c#	5	4e	4g#	4ee
=11	=11	=11	=11	=11
8F#L	6	4f#	4a	4dd
8G#J	.	.	.	.
4A	.	4e	4a	4cc#
2E;	.	2e;	2g#;	2b;
=12	=12	=12	=12	=12
8AL	.	4e	4a	4cc#
8F#J	.	.	.	.
8EL	7 4 2	4f#	4a	4dd
8DJ	.	.	.	.
8C#L	6	4e	8aL	8eeL
8BBJ	6	.	8g#J	8ddJ
4AA	.	4e	4a	4cc#
=13	=13	=13	=13	=13
4E	4	8eL	4a	4b
.	.	8BJ	.	.
4E	3	8eL	4g#	4b
.	.	8dJ	.	.
2AA;	.	2c#;	2e;	2a;
=||	=||	=||	=||	=||
*-	*-	*-	*-	*-
!!!system-decoration: s1,s2,s3,s4
